icons/unread-32.svg

<svg width="32" height="32" viewBox="0 0 32 32" fill="none" xmlns="http://www.w3.org/2000/svg">
<g clip-path="url(#clip0_8547_104264)">
<path d="M21 7L3.5 7C3.22386 7 3 7.22386 3 7.5V8.14058L16 15.7613L22.0383 12.2216C22.753 11.8026 23.672 12.0424 24.0909 12.757C24.5099 13.4717 24.2701 14.3907 23.5555 14.8097L16.7586 18.794C16.2901 19.0686 15.7099 19.0686 15.2414 18.794L3 11.618V24.5C3 24.7761 3.22386 25 3.5 25H28.5C28.7761 25 29 24.7761 29 24.5V15.5C29 14.6716 29.6716 14 30.5 14C31.3284 14 32 14.6716 32 15.5V24.5C32 26.433 30.433 28 28.5 28H3.5C1.567 28 8.70205e-09 26.433 8.70205e-09 24.5V9.02564C-0.000325134 9.00762 -0.000325913 8.98959 8.70205e-09 8.97154V7.5C8.70205e-09 5.567 1.567 4 3.5 4H21C21.8284 4 22.5 4.67157 22.5 5.5C22.5 6.32843 21.8284 7 21 7Z" fill="#24292F"/>
<path d="M28 12C30.2091 12 32 10.2091 32 8C32 5.79086 30.2091 4 28 4C25.7909 4 24 5.79086 24 8C24 10.2091 25.7909 12 28 12Z" fill="#24292F"/>
</g>
<defs>
<clipPath id="clip0_8547_104264">
<rect width="32" height="32" fill="white"/>
</clipPath>
</defs>
</svg>

<svg xmlns="http://www.w3.org/2000/svg" width="32" height="32" viewBox="0 0 32 32"><path d="M21 7H3.5a.5.5 0 00-.5.5v.64l13 7.621 6.038-3.54a1.5 1.5 0 111.517 2.589l-6.796 3.984a1.5 1.5 0 01-1.518 0L3 11.618V24.5a.5.5 0 00.5.5h25a.5.5 0 00.5-.5v-9a1.5 1.5 0 013 0v9a3.5 3.5 0 01-3.5 3.5h-25A3.5 3.5 0 010 24.5v-17A3.5 3.5 0 013.5 4H21a1.5 1.5 0 010 3z"/><path d="M28 12a4 4 0 100-8 4 4 0 000 8z"/></svg>
